X:8
T:Christmas in Australia
T:1864 Victoria, Australia
C:Georger Tolhurst
L:1/4
M:3/4
Q:"allegro" 1/4=140
I:linebreak $
K:G
(D G) | B B B | B c B | B A2 | z A A | A{c} B A | A F D | d3 |$ z d c | B B B | B A G | G c2 | 
w: Old *|Christ- mas you're|wel- come as|ever, *|be the|garb that you|wear what it|may,|For there's|no- thing our|hearts can dis-|se- ver,|
z e2 | d A B | c B A | G3 | z B B |$ B ^G E | e d B | B c2 | z (A B) | c A F | e d c | B3 | 
w: From|thou and thy|gen- i- al|sway,|Let your|man- tle be|verdant * or|hoary, *|your *|ad- vent in|summer * or|snow.|
z (G A) | B B B | B A G |$ G e2 | z e e | d A B | c B A | G3 :| 
w: You are|greeted * in|carol * and|sto- ry,|and it's|sun shine where|wv- er you|go.|

